X:1
T:Title
%%score [ ( 1 2 ) ( 3 4 ) ]
L:1/8
Q:1/4=240
M:4/4
K:A
V:1 treble nm="Midi_74"
V:2 treble 
V:3 bass nm="Midi_74"
V:4 bass 
V:1
 A8 | B4 c4 | d8 || F8 | G4 A4 | A4 G4 |"^G. A. MacFarren\n(1813-1887)" A8 |] %7
V:2
 E8 | E4 E4 | D8 || D8 | D4 E4 | F4 E4 | C8 |] %7
V:3
 C8 | B,4 A,4 | A,8 || A,8 | D4 C4 | B,4 B,4 | A,8 |] %7
V:4
 A,8 | G,4 A,4 | F,8 || D,8 | B,,4 C,4 | D,4 E,4 | A,,8 |] %7

